img/under-construction/cloud.svg

<svg width="88" height="21" viewBox="0 0 88 21" fill="none" xmlns="http://www.w3.org/2000/svg">
<path d="M87.0909 19.5055C84.98 20.8586 83.2301 20.3895 81.5703 20.3895C56.5111 20.4256 31.4519 20.4166 6.39272 20.4076C5.02159 20.4076 3.63243 20.4527 2.28836 20.2452C1.76517 20.164 1.18785 19.5235 0.926252 19.0003C0.790943 18.7297 1.31414 17.7464 1.50357 17.7644C4.69686 17.9358 6.85277 13.5877 8.09761 14.0027C14.0332 15.9963 16.9739 12.018 20.8347 9.29371C22.1427 8.37357 24.5061 8.82462 26.0756 10.3221C29.7651 13.8493 32.1375 11.9549 34.0408 8.31043C34.4377 7.55266 34.7985 6.76784 35.1864 6.00106C38.5421 -0.692508 42.7727 -1.20671 46.9312 4.86441C49.5562 8.69833 52.3075 10.2319 56.8268 7.9135C60.2636 6.15441 62.3925 9.00504 63.935 11.3234C65.676 13.9305 67.426 14.8597 70.3306 13.5606C71.0703 13.2269 72.1438 13.0104 72.8383 13.299C77.493 15.2295 82.0754 17.3043 87.0909 19.5055Z" fill="#D1EBEC"/>
</svg>

<svg width="88" height="21" fill="none" xmlns="http://www.w3.org/2000/svg"><path d="M87.09 19.506c-2.11 1.353-3.86.884-5.52.884-25.059.036-50.118.027-75.177.018-1.371 0-2.76.045-4.105-.163-.523-.081-1.1-.722-1.362-1.245-.135-.27.388-1.254.578-1.236 3.193.172 5.349-4.176 6.594-3.761 5.935 1.993 8.876-1.985 12.737-4.71 1.308-.92 3.671-.468 5.24 1.03 3.69 3.526 6.063 1.632 7.966-2.013.397-.757.758-1.542 1.145-2.309 3.356-6.694 7.587-7.208 11.745-1.137 2.625 3.834 5.377 5.368 9.896 3.05 3.437-1.76 5.566 1.091 7.108 3.41 1.741 2.607 3.491 3.536 6.396 2.237.74-.334 1.813-.55 2.507-.262 4.655 1.93 9.237 4.005 14.253 6.207z" fill="#D1EBEC"/></svg>
